X:17253
T:The Stool of Repentance (cheat's version)
M:6/8
L:1/8
K:G
% tweaked to remove the f's
g2d B2d|g2e dcB|gee e2d|ege e2d |
g2d B2d|g2e dcB|c2d e2d|egB A2G:|
BGG dGG|BGG dcB|cAA eAA|cAA edc |
BGG dGG|BGG dcB|c2d e2d|egB A2G:|
